X:1
T:Title
%%score 1 { 2 | 3 }
L:1/8
Q:1/4=105
M:4/4
K:Bb
V:1 treble nm="Grand Piano, Staff 1"
V:2 bass nm="Choir Pad, Salisbury, LM"
V:3 bass 
V:1
 [DG]2 [DA]2 [DA]2 [DB]2 | [EG]2 [EG]2 [D^F]2 [DG]2 | [DB]2 [Fc]2 [Fd]2 [Ge]2 | %3
w: By~Thomas~Ravenscroft,~Psalmes,~1621 * * *|||
 [^Fd]2 [Gd]2 [Gc]2 [Fd]2 | [Fd]2 [Ff]2 [Fd]2 [Fc]2 | [FB]2 [GB]2 [FA]2 [DB]2 | %6
w: |||
 [FB]2 [FA]2 [FB]2 [Ec]2 | [DB]2 [DA]2 [DA]2 [B,G]2- | [B,G]6 z2 |] %9
w: |||
V:2
 B,2 A,2 ^F,2 G,2 | B,2 C2 A,2 B,2 | G,2 A,2 A,2 C2 | A,2 G,2 G,2 A,2 | B,2 C2 B,2 A,2 | %5
 D2 C2 C2 B,2 | D2 C2[K:bass] B,2 G,2 | G,2 G,2 ^F,2 G,2- | G,6 z2 |] %9
V:3
 G,2 ^F,2 D,2 z2 | E,2 C,2 D,2 G,,2 | z2 F,2 D,2 C,2 | D,2 E,2 E,2 D,2 | B,,2 A,,2 B,,2 F,2 | %5
 D,2 E,2 F,2 B,,2 | B,,2 F,2 D,2 C,2 | G,,2 D,2 D,2 G,,2- | G,,6 z2 |] %9

